X:2
T:Rakish Paddy
R:reel
C:Syracuse session setting
L:1/8
M:4/4
K:Dmix
"C"c3B c2AB|cBAG EG~G2|"D"Add^c defe|dcAG FGAB|
"C"c3B c2AB|"D"cAAG EFGE|DEFG ABcA|[1 dcAG FGAB:|[2 dcAG FDD2|]
"C"eg~g2 ag~g2|eg~g2 edBd|"Am"ea~a2 bgag|eaag edBd|
"C"eg~g2 ag~g2|egge "D"defg|afge fde^c|[1 dcAG FDD2:|[2 dcAG FGAB|]
